X:1
T:Title
%%score { ( 1 3 ) | ( 2 4 ) }
L:1/8
M:4/4
K:G
V:1 treble nm="Grand Piano"
V:3 treble 
V:2 treble 
V:4 treble 
V:1
 z4 z2[Q:1/4=100] GA | BBBA G2 G>E | z2 B,>B, B,2 GA | BBBB d2 B>B | A6 z2 | %5
[M:3/4] BB [DFA][CFA] [B,G]2 |[M:1/4] [DG][DG] |[M:4/4] [EA][EG][EG]E D2 DD | %8
 E[EG][EG][Ec] [DB]2 [B,DG]>[CDA] |[M:3/4] [B,DG]6 |[M:1/4] B>c |[M:4/4] d6 z2 | B6 z2 | %13
 BBBB d2 B>B | A6 z2 |[M:3/4] BB [DFA][CFA] [B,G]2 |[M:1/4] [DG][DG] |[M:4/4] [EA][EG][EG]E D2 DD | %18
 E[EG][EG][Ec] [DB]2 [B,DG]>[CDA] |[M:7/4] [B,DG]6 z2 z2 z4 |] %20
V:2
 z4 z2 [G,B,D][G,CD] | [G,DG][G,DG][G,DG][G,CD] [G,B,D]2 E>C | %2
 B,2 G,>G, G,2 [G,B,D][K:treble][G,CD] | [G,DG][G,DG][G,DG][G,DG] [G,B,G]2 G>G | F6[K:bass] z2 | %5
[M:3/4][K:treble] [G,DG][G,DG][K:bass] D,D, E,2 |[M:1/4] B,,B,, | %7
[M:4/4] [C,C][C,C][C,C][E,G,C] [G,B,]2 [G,B,][G,B,] | [C,G,C][C,C][C,C][C,G,] [D,G,]2 D,>D, | %9
[M:3/4] G,,6 |[M:1/4][K:treble] G>A |[M:4/4] B6 z2 | G6[K:bass] z2[K:treble] | %13
 [G,DG][G,DG][G,DG][G,DG] [G,B,G]2 G>G | F6[K:bass] z2 | %15
[M:3/4][K:treble] [G,DG][G,DG][K:bass] D,D, E,2 |[M:1/4] B,,B,, | %17
[M:4/4] [C,C][C,C][C,C][E,G,C] [G,B,]2 [G,B,][G,B,] | [C,G,C][C,C][C,C][C,G,] [D,G,]2 D,>D, | %19
[M:7/4] G,,6 z2 z2 z4 |] %20
V:3
 x8 | x8 | D6 z2 | x8 | z2 D>D DCGA |[M:3/4] x6 |[M:1/4] x2 |[M:4/4] x8 | x8 |[M:3/4] x6 | %10
[M:1/4] x2 |[M:4/4] z2 D>D DDGA | z DDD D2 GA | x8 | z2 D>D DCGA |[M:3/4] x6 |[M:1/4] x2 | %17
[M:4/4] x8 | x8 |[M:7/4] x14 |] %20
V:4
 x8 | x8 | x7[K:treble] x | x8 | z2[K:bass] D,>D, D,2 [G,B,D][G,CD] | %5
[M:3/4][K:treble] x2[K:bass] x4 |[M:1/4] x2 |[M:4/4] x8 | x8 |[M:3/4] x6 |[M:1/4][K:treble] x2 | %11
[M:4/4] z2 G,>G, G,G,[G,B,][G,CG] | [G,D][K:bass]G,G,G, G,2 [G,B,D][K:treble][G,CD] | x8 | %14
 z2[K:bass] D,>D, D,2 [G,B,D][G,CD] |[M:3/4][K:treble] x2[K:bass] x4 |[M:1/4] x2 |[M:4/4] x8 | x8 | %19
[M:7/4] x14 |] %20

